flaticon/online-marketing/website.svg

<svg xmlns="http://www.w3.org/2000/svg" width="32" height="32" viewBox="0 0 24 24">
    <path d="M 23.585938 7.539062 L 18.234375 7.539062 L 18.234375 3.519531 C 18.234375 3.289062 18.050781 3.105469 17.820312 3.105469 L 0.414062 3.105469 C 0.1875 3.105469 0 3.289062 0 3.519531 L 0 16.046875 C 0 16.277344 0.1875 16.460938 0.414062 16.460938 L 5.765625 16.460938 L 5.765625 20.480469 C 5.765625 20.710938 5.949219 20.894531 6.179688 20.894531 L 23.585938 20.894531 C 23.8125 20.894531 24 20.710938 24 20.480469 L 24 7.953125 C 24 7.722656 23.8125 7.539062 23.585938 7.539062 Z M 23.167969 9.992188 L 6.59375 9.992188 L 6.59375 8.371094 L 23.167969 8.371094 Z M 17.40625 3.933594 L 17.40625 5.558594 L 0.832031 5.558594 L 0.832031 3.933594 Z M 0.832031 15.628906 L 0.832031 6.390625 L 17.40625 6.390625 L 17.40625 7.539062 L 6.179688 7.539062 C 5.949219 7.539062 5.765625 7.722656 5.765625 7.953125 L 5.765625 15.628906 Z M 6.59375 10.824219 L 11.617188 10.824219 L 11.617188 20.066406 L 6.59375 20.066406 Z M 12.449219 20.066406 L 12.449219 10.824219 L 23.167969 10.824219 L 23.167969 20.066406 Z M 12.449219 20.066406"/>
    <path d="M7.457031 9.597656C7.566406 9.597656 7.671875 9.554688 7.75 9.476562 7.828125 9.398438 7.871094 9.289062 7.871094 9.179688 7.871094 9.070312 7.828125 8.964844 7.75 8.886719 7.671875 8.808594 7.566406 8.765625 7.457031 8.765625 7.347656 8.765625 7.238281 8.808594 7.164062 8.886719 7.085938 8.964844 7.039062 9.070312 7.039062 9.179688 7.039062 9.289062 7.085938 9.398438 7.164062 9.476562 7.238281 9.554688 7.347656 9.597656 7.457031 9.597656zM8.484375 9.597656C8.59375 9.597656 8.703125 9.554688 8.78125 9.476562 8.855469 9.398438 8.902344 9.289062 8.902344 9.179688 8.902344 9.070312 8.855469 8.964844 8.78125 8.886719 8.703125 8.808594 8.59375 8.765625 8.484375 8.765625 8.375 8.765625 8.269531 8.808594 8.191406 8.886719 8.113281 8.964844 8.070312 9.070312 8.070312 9.179688 8.070312 9.289062 8.113281 9.398438 8.191406 9.476562 8.269531 9.554688 8.375 9.597656 8.484375 9.597656zM9.515625 9.597656C9.625 9.597656 9.730469 9.554688 9.808594 9.476562 9.886719 9.398438 9.929688 9.289062 9.929688 9.179688 9.929688 9.070312 9.886719 8.964844 9.808594 8.886719 9.730469 8.808594 9.625 8.765625 9.515625 8.765625 9.40625 8.765625 9.296875 8.808594 9.222656 8.886719 9.144531 8.964844 9.097656 9.070312 9.097656 9.179688 9.097656 9.289062 9.144531 9.398438 9.222656 9.476562 9.296875 9.554688 9.40625 9.597656 9.515625 9.597656zM7.777344 12.511719L10.4375 12.511719C10.667969 12.511719 10.851562 12.324219 10.851562 12.09375 10.851562 11.863281 10.667969 11.679688 10.4375 11.679688L7.777344 11.679688C7.546875 11.679688 7.359375 11.863281 7.359375 12.09375 7.359375 12.324219 7.546875 12.511719 7.777344 12.511719zM10.4375 13.175781L7.777344 13.175781C7.546875 13.175781 7.359375 13.363281 7.359375 13.589844 7.359375 13.820312 7.546875 14.007812 7.777344 14.007812L10.4375 14.007812C10.667969 14.007812 10.851562 13.820312 10.851562 13.589844 10.851562 13.363281 10.667969 13.175781 10.4375 13.175781zM10.4375 14.671875L7.777344 14.671875C7.546875 14.671875 7.359375 14.859375 7.359375 15.085938 7.359375 15.316406 7.546875 15.503906 7.777344 15.503906L10.4375 15.503906C10.667969 15.503906 10.851562 15.316406 10.851562 15.085938 10.851562 14.859375 10.667969 14.671875 10.4375 14.671875zM19.789062 11.679688L13.542969 11.679688C13.3125 11.679688 13.125 11.863281 13.125 12.09375 13.125 12.324219 13.3125 12.511719 13.542969 12.511719L19.789062 12.511719C20.015625 12.511719 20.203125 12.324219 20.203125 12.09375 20.203125 11.863281 20.015625 11.679688 19.789062 11.679688zM19.789062 13.175781L13.542969 13.175781C13.3125 13.175781 13.125 13.363281 13.125 13.589844 13.125 13.820312 13.3125 14.007812 13.542969 14.007812L19.789062 14.007812C20.015625 14.007812 20.203125 13.820312 20.203125 13.589844 20.203125 13.363281 20.015625 13.175781 19.789062 13.175781zM19.789062 14.671875L13.542969 14.671875C13.3125 14.671875 13.125 14.859375 13.125 15.085938 13.125 15.316406 13.3125 15.503906 13.542969 15.503906L19.789062 15.503906C20.015625 15.503906 20.203125 15.316406 20.203125 15.085938 20.203125 14.859375 20.015625 14.671875 19.789062 14.671875zM1.691406 5.164062C1.800781 5.164062 1.910156 5.117188 1.984375 5.039062 2.0625 4.964844 2.105469 4.855469 2.105469 4.746094 2.105469 4.636719 2.0625 4.53125 1.984375 4.453125 1.910156 4.375 1.800781 4.332031 1.691406 4.332031 1.582031 4.332031 1.476562 4.375 1.398438 4.453125 1.320312 4.53125 1.277344 4.636719 1.277344 4.746094 1.277344 4.855469 1.320312 4.964844 1.398438 5.039062 1.476562 5.117188 1.582031 5.164062 1.691406 5.164062zM2.722656 5.164062C2.832031 5.164062 2.9375 5.117188 3.015625 5.039062 3.09375 4.964844 3.136719 4.855469 3.136719 4.746094 3.136719 4.636719 3.09375 4.53125 3.015625 4.453125 2.9375 4.375 2.832031 4.332031 2.722656 4.332031 2.613281 4.332031 2.503906 4.375 2.425781 4.453125 2.351562 4.53125 2.304688 4.636719 2.304688 4.746094 2.304688 4.855469 2.351562 4.964844 2.425781 5.039062 2.503906 5.117188 2.613281 5.164062 2.722656 5.164062zM3.75 5.164062C3.859375 5.164062 3.96875 5.117188 4.042969 5.039062 4.121094 4.964844 4.167969 4.855469 4.167969 4.746094 4.167969 4.636719 4.121094 4.53125 4.042969 4.453125 3.96875 4.375 3.859375 4.332031 3.75 4.332031 3.640625 4.332031 3.535156 4.375 3.457031 4.453125 3.378906 4.53125 3.335938 4.636719 3.335938 4.746094 3.335938 4.855469 3.378906 4.964844 3.457031 5.039062 3.535156 5.117188 3.640625 5.164062 3.75 5.164062zM4.671875 7.246094L2.011719 7.246094C1.78125 7.246094 1.597656 7.429688 1.597656 7.660156 1.597656 7.890625 1.78125 8.074219 2.011719 8.074219L4.671875 8.074219C4.902344 8.074219 5.089844 7.890625 5.089844 7.660156 5.089844 7.429688 4.902344 7.246094 4.671875 7.246094zM4.671875 8.742188L2.011719 8.742188C1.78125 8.742188 1.597656 8.925781 1.597656 9.15625 1.597656 9.386719 1.78125 9.574219 2.011719 9.574219L4.671875 9.574219C4.902344 9.574219 5.089844 9.386719 5.089844 9.15625 5.089844 8.925781 4.902344 8.742188 4.671875 8.742188zM4.671875 10.238281L2.011719 10.238281C1.78125 10.238281 1.597656 10.421875 1.597656 10.652344 1.597656 10.882812 1.78125 11.070312 2.011719 11.070312L4.671875 11.070312C4.902344 11.070312 5.089844 10.882812 5.089844 10.652344 5.089844 10.421875 4.902344 10.238281 4.671875 10.238281zM4.671875 10.238281"/>
</svg>

<svg xmlns="http://www.w3.org/2000/svg" width="32" height="32" viewBox="0 0 24 24">
    <path d="M23.586 7.54h-5.352V3.52a.412.412 0 0 0-.414-.415H.414A.414.414 0 0 0 0 3.52v12.527c0 .23.188.414.414.414h5.352v4.02c0 .23.183.414.414.414h17.406A.414.414 0 0 0 24 20.48V7.953a.414.414 0 0 0-.414-.414zm-.418 2.452H6.594v-1.62h16.574zm-5.762-6.058v1.625H.832V3.934zM.832 15.629V6.39h16.574v1.148H6.18a.412.412 0 0 0-.414.414v7.676zm5.762-4.805h5.023v9.242H6.594zm5.855 9.242v-9.242h10.719v9.242zm0 0"/>
    <path d="M7.457 9.598a.414.414 0 0 0 .414-.418.414.414 0 0 0-.707-.293.418.418 0 0 0-.125.293c0 .11.047.218.125.297a.407.407 0 0 0 .293.12zm0 0M8.484 9.598c.11 0 .22-.043.297-.121a.44.44 0 0 0 .121-.297.431.431 0 0 0-.12-.293.423.423 0 0 0-.59 0 .423.423 0 0 0 0 .59.414.414 0 0 0 .292.12zm0 0M9.516 9.598a.414.414 0 0 0 .414-.418.414.414 0 0 0-.707-.293.418.418 0 0 0-.125.293c0 .11.047.218.125.297a.407.407 0 0 0 .293.12zm0 0M7.777 12.512h2.66c.231 0 .415-.188.415-.418a.412.412 0 0 0-.415-.414h-2.66a.415.415 0 1 0 0 .832zm0 0M10.438 13.176h-2.66a.418.418 0 0 0-.419.414c0 .23.188.418.418.418h2.66c.231 0 .415-.188.415-.418a.414.414 0 0 0-.415-.414zm0 0M10.438 14.672h-2.66a.418.418 0 0 0-.419.414c0 .23.188.418.418.418h2.66c.231 0 .415-.188.415-.418a.414.414 0 0 0-.415-.414zm0 0M19.79 11.68h-6.247a.415.415 0 1 0 0 .832h6.246a.418.418 0 0 0 .414-.418.414.414 0 0 0-.414-.414zm0 0M19.79 13.176h-6.247a.418.418 0 0 0-.418.414c0 .23.188.418.418.418h6.246a.417.417 0 0 0 0-.832zm0 0M19.79 14.672h-6.247a.418.418 0 0 0-.418.414c0 .23.188.418.418.418h6.246a.417.417 0 0 0 0-.832zm0 0M1.691 5.164a.41.41 0 0 0 .293-.125.414.414 0 1 0-.586 0 .418.418 0 0 0 .293.125zm0 0M2.723 5.164a.418.418 0 0 0 .293-.71.423.423 0 0 0-.59 0 .431.431 0 0 0-.121.292.424.424 0 0 0 .418.418zm0 0M3.75 5.164a.41.41 0 0 0 .293-.125.41.41 0 0 0 .125-.293.418.418 0 0 0-.711-.293.414.414 0 0 0 0 .586.418.418 0 0 0 .293.125zm0 0M4.672 7.246h-2.66a.412.412 0 0 0-.414.414c0 .23.183.414.414.414h2.66c.23 0 .418-.183.418-.414a.415.415 0 0 0-.418-.414zm0 0M4.672 8.742h-2.66a.412.412 0 0 0-.414.414c0 .23.183.418.414.418h2.66a.415.415 0 1 0 0-.832zm0 0M4.672 10.238h-2.66a.412.412 0 0 0-.414.414c0 .23.183.418.414.418h2.66a.415.415 0 1 0 0-.832zm0 0"/>
</svg>
